X:346
T: SCHARRET DAS FEUER ZU KOHLEN
N: E0973B
O: Europa, Mitteleuropa, Deutschland, Oderberg, Hohen - Saathen
N: Schluss - Strophe zu Lied E0973A
R: Tanz - Lied, Reigen
M: 3/8
L: 1/16
K: A
 | A2A2A2 | B2A2G2 | A2E2z2
A2A2A2 | B2A2G2 | A2E2E2
c2c2c2 | c2c2c2 | d2d2
d2 | B4B2 | B2B2BB | e2e2z2
A2A2A2 | B2A2G2 | A2E2z2
A2A2A2 | B2A2G2 | A2E2E2
c2c2c2 | c2c2c2 | d2d2
d2 | B4B2 | B2B2BB | e2e2
E2 | A2A2A2 | B2A2G2 | A2A2z2

